src/images/logo.svg

<svg width="123" height="39" viewBox="0 0 123 39" fill="none" xmlns="http://www.w3.org/2000/svg">
<path fill-rule="evenodd" clip-rule="evenodd" d="M45.9731 3.86758L46.6002 7.56527H64.6136L44.6249 33.3199L45.1555 36.9713H69.7218L69.2394 33.3199H49.6824L69.8641 7.56527L69.3817 3.86758H45.9731Z" fill="#13AA57"/>
<path fill-rule="evenodd" clip-rule="evenodd" d="M90.1682 31.2266C88.8996 32.8183 87.2066 33.6129 85.0866 33.6129C82.9353 33.6129 81.2495 32.8256 80.0291 31.251C78.8088 29.6788 78.1986 27.624 78.1986 25.0938C78.23 22.6929 78.8811 20.6966 80.1497 19.1049C81.4183 17.5156 83.1114 16.7186 85.2313 16.7186C87.3826 16.7186 89.0684 17.5083 90.2888 19.0805C91.5091 20.6551 92.1193 22.7075 92.1193 25.2376C92.0856 27.641 91.4368 29.6373 90.1682 31.2266ZM91.3741 14.286C89.6207 13.2476 87.5755 12.7284 85.2313 12.7284C82.8533 12.7284 80.7816 13.2476 79.0162 14.286C77.2508 15.3243 75.8857 16.7844 74.9234 18.6661C73.9587 20.5503 73.4788 22.7075 73.4788 25.1426C73.4788 27.6093 73.9418 29.7836 74.8752 31.6653C75.8061 33.5471 77.1471 35.0071 78.898 36.048C80.6465 37.0839 82.6941 37.6055 85.0383 37.6055C87.4139 37.6055 89.4929 37.0839 91.2752 36.048C93.0575 35.0071 94.4322 33.5471 95.3945 31.6653C96.3568 29.7836 96.8391 27.624 96.8391 25.1889C96.8391 22.7246 96.3664 20.5503 95.4186 18.6661C94.4708 16.7844 93.1226 15.3243 91.3741 14.286Z" fill="#13AA57"/>
<mask id="mask0" mask-type="alpha" maskUnits="userSpaceOnUse" x="102" y="13" width="21" height="25">
<path fill-rule="evenodd" clip-rule="evenodd" d="M102.186 13.3607H122.658V37.75H102.186V13.3607Z" fill="white"/>
</mask>
<g mask="url(#mask0)">
<path fill-rule="evenodd" clip-rule="evenodd" d="M118.034 13.3607V30.0112C116.78 31.113 115.514 32.0148 114.228 32.712C112.943 33.4115 111.754 33.7577 110.664 33.7577C109.219 33.7577 108.216 33.314 107.654 32.4195C107.092 31.5273 106.81 30.2208 106.81 28.5V13.3607H102.186V28.9387C102.186 31.6346 102.804 33.7747 104.041 35.364C105.276 36.9557 107.164 37.7503 109.699 37.7503C111.243 37.7503 112.801 37.3847 114.373 36.6558C115.946 35.9246 117.359 34.9935 118.613 33.8552L119.431 36.9727H122.658V13.3607H118.034Z" fill="#13AA57"/>
</g>
<mask id="mask1" mask-type="alpha" maskUnits="userSpaceOnUse" x="0" y="2" width="34" height="35">
<path fill-rule="evenodd" clip-rule="evenodd" d="M0 2.43799H33.7305V36.4184H0V2.43799Z" fill="white"/>
</mask>
<g mask="url(#mask1)">
<path fill-rule="evenodd" clip-rule="evenodd" d="M16.8649 2.43726C7.55069 2.43726 -0.000549316 10.0691 -0.000549316 19.4827C-0.000549316 27.8287 5.94204 34.7634 13.7803 36.2308C12.6299 33.4569 11.5205 29.981 10.9416 25.8763C10.5316 22.9756 10.4689 20.3529 10.563 18.1153C10.7776 19.3925 11.1515 20.9671 11.8219 22.6953C12.4876 24.4113 13.2666 25.8153 13.9636 26.8951C13.9636 24.7696 14.253 21.4595 15.852 17.8593C16.602 16.1701 17.4751 14.7881 18.2855 13.7034C17.6801 15.8313 17.1157 18.5784 16.9855 21.8032C16.8939 24.0091 17.0217 25.9835 17.2363 27.6581C17.943 27.056 18.8185 26.1834 19.6288 24.9866C20.7141 23.3803 21.2447 21.8446 21.5172 20.7868C21.5486 23.1316 21.3918 26.0396 20.7623 29.3131C20.2342 32.0456 19.4937 34.427 18.7292 36.4184C27.1656 35.48 33.7304 28.2577 33.7304 19.4827C33.7304 10.0691 26.1792 2.43726 16.8649 2.43726Z" fill="#13AA57"/>
</g>
</svg>

<svg width="123" height="39" fill="none" xmlns="http://www.w3.org/2000/svg"><path fill-rule="evenodd" clip-rule="evenodd" d="M45.973 3.868l.627 3.697h18.014L44.624 33.32l.532 3.651h24.566l-.483-3.651H49.682L69.864 7.565l-.482-3.697H45.973zM90.168 31.227c-1.268 1.591-2.961 2.386-5.081 2.386-2.152 0-3.838-.787-5.058-2.362-1.22-1.572-1.83-3.627-1.83-6.157.031-2.401.682-4.397 1.95-5.99 1.27-1.588 2.962-2.385 5.082-2.385 2.152 0 3.837.79 5.058 2.361 1.22 1.575 1.83 3.628 1.83 6.158-.033 2.403-.682 4.4-1.95 5.989zm1.206-16.941c-1.753-1.038-3.798-1.558-6.143-1.558-2.378 0-4.45.52-6.215 1.558-1.765 1.038-3.13 2.498-4.093 4.38-.964 1.884-1.444 4.041-1.444 6.477 0 2.466.463 4.64 1.396 6.522.931 1.882 2.272 3.342 4.023 4.383 1.749 1.036 3.796 1.557 6.14 1.557 2.376 0 4.455-.521 6.237-1.557 1.782-1.04 3.157-2.5 4.12-4.383.962-1.881 1.444-4.041 1.444-6.476 0-2.464-.473-4.639-1.42-6.523-.948-1.882-2.296-3.342-4.045-4.38z" fill="#13AA57"/><mask id="a" maskUnits="userSpaceOnUse" x="102" y="13" width="21" height="25"><path fill-rule="evenodd" clip-rule="evenodd" d="M102.186 13.36h20.472v24.39h-20.472V13.36z" fill="#fff"/></mask><g mask="url(#a)"><path fill-rule="evenodd" clip-rule="evenodd" d="M118.034 13.36v16.651c-1.254 1.102-2.52 2.004-3.806 2.701-1.285.7-2.474 1.046-3.564 1.046-1.445 0-2.448-.444-3.01-1.339-.562-.892-.844-2.198-.844-3.919V13.36h-4.624V28.94c0 2.696.618 4.836 1.855 6.425 1.235 1.592 3.123 2.386 5.658 2.386 1.544 0 3.102-.365 4.674-1.094a16.792 16.792 0 0 0 4.24-2.8l.818 3.117h3.227V13.36h-4.624z" fill="#13AA57"/></g><mask id="b" maskUnits="userSpaceOnUse" x="0" y="2" width="34" height="35"><path fill-rule="evenodd" clip-rule="evenodd" d="M0 2.438h33.73v33.98H0V2.438z" fill="#fff"/></mask><g mask="url(#b)"><path fill-rule="evenodd" clip-rule="evenodd" d="M16.865 2.437C7.55 2.437-.001 10.07-.001 19.483c0 8.346 5.943 15.28 13.781 16.748a42.456 42.456 0 0 1-2.838-10.355c-.41-2.9-.473-5.523-.379-7.76a23.257 23.257 0 0 0 3.4 8.78c0-2.126.29-5.437 1.889-9.037a21.562 21.562 0 0 1 2.433-4.156 34.712 34.712 0 0 0-1.3 8.1 34.74 34.74 0 0 0 .251 5.855 13.322 13.322 0 0 0 2.393-2.671 13.536 13.536 0 0 0 1.888-4.2 42.165 42.165 0 0 1-.755 8.526 42.126 42.126 0 0 1-2.033 7.105c8.437-.938 15.001-8.16 15.001-16.935 0-9.414-7.55-17.046-16.865-17.046z" fill="#13AA57"/></g></svg>
